X:1
T:What Would Jesus Do?
T:What Would Jesus Do?
T:Francis Foster
T:Ina Duley Ogdon, 1912
T:Public Domain Courtesy of the Cyber Hymnal™
T:Public Domain Courtesy of the Cyber Hymnal™
C:Francis Foster
Z:Public Domain
Z:Courtesy of the Cyber Hymnal™
%%score 1 ( 2 3 )
L:1/8
Q:1/4=110
M:4/4
K:Ab
V:1 treble 
V:2 bass 
V:3 bass 
V:1
 [CE][CE] | [CA]3 [CA] [=B,G]2 [B,F]2 | [CE]2 [CA]4 [EA][FB] | [Ec]3 [Ec] [DB]2 [DB]2 | %4
w: 1.~Oft we|lose the nar- row|path- way, As we|seek the land of|
w: 2.~Do not|wea- ry of well|do- ing, From the|mock- er- y of|
w: 3.~Though our|hu- man cour- age|fal- ters, At the|world’s ap- pall- ing|
w: 4.~What to|us is fame or|trea- sure, Though of|all we gain con-|
 [CA]6 [CE][CE] | [DF]3 [EG] [FA]2 [DF]2 | [CE]2 [Ec]4 [EA][EG] | [EG]3 [EB] [=DB]2 [Dc]2 | %8
w: day; Yet the|Mas- ter goes be-|fore us: In His|steps we find the|
w: men, Je- sus,|too, was scorned, re-|ject- ed, Yet re-|viled them not a-|
w: sin, It is|Je- sus we are|trust- ing, Love di-|vine shall sure- ly|
w: trol; This a-|lone shall tru- ly|pro- fit: A re-|deemed, im- mor- tal|
 [EB]6 z2 ||"^Refrain" [Ec]3 [Ec] [DB]2 [DA]2 | [Cc]6 [CE][CE] | [DF]3 [FA] [EG]2 [DF]2 | %12
w: way.||||
w: gain.||||
w: win.|What would Je- sus|do? Make His|way the way for|
w: soul.||||
 [CE]6 [CE][CA] | [Ec][Ec][Fd][Ec] [Ec][DB][DE][DG] | [DB][DB][Ec][DB] !fermata![CA]2 [=B,G][B,F] | %15
w: |||
w: |||
w: you. In a|world of sin and sor- row He was|tried and prov- en true, So we|
w: |||
 [CE][CA][EA][Fd] [Ec]2 [DB]2 | [CA]6 |] %17
w: ||
w: ||
w: al- ways know what He would|do.|
w: ||
V:2
 [A,,A,][A,,A,] | [A,,E,]3 [A,,E,] [A,,=D,]2 [A,,D,]2 | [A,,E,]2 [A,,E,]4 [C,A,][D,A,] | %3
 [E,A,]3 [E,A,] [E,G,]2 [E,G,]2 | [A,,A,]6 [A,,A,][A,,A,] | [D,A,]3 [D,A,] [D,A,]2 [D,A,]2 | %6
 [A,,A,]2 [A,,A,]4 [A,,C][A,,C] | [B,,B,]3 [B,,G,] [B,,F,]2 [B,,A,]2 | [E,G,]6 z2 || %9
 [A,,A,]3 [A,,A,] [A,,G,]2 [A,,_F,]2 | [A,,E,]6 [A,,A,][A,,A,] | [D,A,]3 [D,A,] [D,A,]2 [D,A,]2 | %12
 [A,,A,]6 [A,,A,][A,,A,] | A,A,A,A, [E,A,][E,G,][E,G,][E,B,] | %14
 [E,G,][E,G,][E,G,][=E,G,] !fermata![F,A,]2 [=D,A,][D,A,] | %15
 [E,A,][F,A,][C,A,][D,A,] [E,A,]2 [E,G,]2 | [A,,A,]6 |] %17
V:3
 x2 | x8 | x8 | x8 | x8 | x8 | x8 | x8 | x8 || x8 | x8 | x8 | x8 | A,A,A,A, x4 | x8 | x8 | x6 |] %17

